src/assets/icons/letters,fancy,serif-g.svg

<svg width="48" height="48" viewBox="0 0 48 48" fill="none" xmlns="http://www.w3.org/2000/svg">
<path d="M24.0004 37.38C21.7204 37.38 19.6558 37.0507 17.8064 36.392C15.9824 35.708 14.4244 34.7453 13.1324 33.504C11.8658 32.2373 10.8778 30.7173 10.1684 28.944C9.48445 27.1453 9.14245 25.1313 9.14245 22.902C9.14245 20.5967 9.50978 18.494 10.2444 16.594C11.0044 14.6687 12.0558 13.022 13.3984 11.654C14.7411 10.286 16.3498 9.23467 18.2244 8.5C20.0991 7.74 22.1764 7.36 24.4564 7.36C26.0271 7.36 27.5218 7.57533 28.9404 8.006C30.3591 8.43667 31.8918 9.13333 33.5384 10.096L34.2604 7.74H35.6284V17.354H33.7284C33.2218 14.9727 32.1958 13.1233 30.6504 11.806C29.1304 10.4887 27.2178 9.83 24.9124 9.83C21.9991 9.83 19.7318 10.9573 18.1104 13.212C16.5144 15.4413 15.7164 18.57 15.7164 22.598C15.7164 26.55 16.5018 29.5773 18.0724 31.68C19.6431 33.7827 21.9231 34.834 24.9124 34.834C27.0658 34.834 28.7378 34.2893 29.9284 33.2C31.1444 32.0853 31.7524 30.5527 31.7524 28.602C31.7524 27.4367 31.4484 26.588 30.8404 26.056C30.2324 25.4987 29.2064 25.1567 27.7624 25.03V23.51H40.0744V25.03C38.8331 25.03 37.9718 25.3087 37.4904 25.866C37.0091 26.398 36.7684 27.3733 36.7684 28.792V33.846C36.2111 33.846 35.7424 33.8713 35.3624 33.922C34.9824 33.9473 34.6024 34.0233 34.2224 34.15C33.8678 34.2513 33.4624 34.4287 33.0064 34.682C32.5504 34.9353 31.9804 35.2647 31.2964 35.67C29.3458 36.81 26.9138 37.38 24.0004 37.38Z" fill="black"/>
</svg>

<svg xmlns="http://www.w3.org/2000/svg" width="48" height="48" fill="none" viewBox="0 0 48 48">
  <path fill="#000" d="M24 37.38c-2.28 0-4.344-.33-6.194-.988-1.824-.684-3.382-1.647-4.674-2.888-1.266-1.267-2.254-2.787-2.964-4.56-.684-1.799-1.026-3.813-1.026-6.042 0-2.305.368-4.408 1.102-6.308.76-1.925 1.812-3.572 3.154-4.94 1.343-1.368 2.952-2.42 4.826-3.154 1.875-.76 3.952-1.14 6.232-1.14 1.571 0 3.066.215 4.484.646 1.42.43 2.952 1.127 4.598 2.09l.722-2.356h1.368v9.614h-1.9c-.506-2.381-1.532-4.23-3.078-5.548-1.52-1.317-3.432-1.976-5.738-1.976-2.913 0-5.18 1.127-6.802 3.382-1.596 2.23-2.394 5.358-2.394 9.386 0 3.952.786 6.98 2.356 9.082 1.571 2.103 3.851 3.154 6.84 3.154 2.154 0 3.826-.545 5.016-1.634 1.216-1.115 1.824-2.647 1.824-4.598 0-1.165-.304-2.014-.912-2.546-.608-.557-1.634-.9-3.078-1.026v-1.52h12.312v1.52c-1.24 0-2.102.279-2.584.836-.48.532-.722 1.507-.722 2.926v5.054c-.557 0-1.026.025-1.406.076-.38.025-.76.101-1.14.228-.354.101-.76.279-1.216.532a73.29 73.29 0 00-1.71.988c-1.95 1.14-4.382 1.71-7.296 1.71z"/>
</svg>
